images/metro.svg

<svg width="31" height="21" viewBox="0 0 31 21" fill="none" xmlns="http://www.w3.org/2000/svg">
<path fill-rule="evenodd" clip-rule="evenodd" d="M9.36124 0.0335575C9.34966 0.0520392 9.1028 0.66231 8.81266 1.38976C8.52251 2.1172 7.9404 3.57101 7.51912 4.62043C7.0978 5.66984 6.61035 6.882 6.43585 7.31411C6.26135 7.74623 6.0214 8.34389 5.9026 8.64225C5.78384 8.94061 5.45961 9.74872 5.18207 10.438C4.90457 11.1274 4.41369 12.3479 4.09132 13.1504C3.7689 13.9529 3.19913 15.3713 2.82512 16.3023L2.14513 17.9951L0 17.9953L0.000266701 19.1458C0.000418569 19.7785 0.0114276 20.4098 0.024754 20.5487L0.0489401 20.8013H11.0484V17.9953H10.2723C9.84543 17.9953 9.48706 17.9807 9.47586 17.9629C9.4647 17.9451 9.68609 17.2759 9.96788 16.4758C10.2496 15.6757 10.5754 14.7586 10.6918 14.4379C10.8082 14.1172 10.9184 13.831 10.9368 13.8019C10.9638 13.7594 10.9835 13.7671 11.0378 13.8415C11.075 13.8924 11.1584 14.0186 11.2232 14.1221C11.288 14.2256 11.6573 14.8237 12.0437 15.4513C12.4301 16.0789 13.3226 17.5267 14.027 18.6688C14.7314 19.8108 15.3517 20.8025 15.4055 20.8726L15.5034 21L15.5917 20.8913C15.6403 20.8315 15.8746 20.4711 16.1124 20.0904C16.3503 19.7098 16.8345 18.9269 17.1886 18.3508C17.5426 17.7746 18.2728 16.5877 18.8112 15.7132C19.3495 14.8387 19.8435 14.0352 19.9088 13.9278C19.9741 13.8203 20.0377 13.732 20.0502 13.7314C20.0626 13.7308 20.1345 13.8945 20.2098 14.0951C20.2851 14.2957 20.5596 15.066 20.8197 15.8067C21.0799 16.5475 21.3616 17.343 21.4457 17.5744L21.5986 17.9953H20.0086V20.8389L31 20.82V18.014L28.8738 17.9766L28.4716 16.9852C28.2503 16.4399 27.8633 15.4803 27.6115 14.8527C27.3597 14.2251 26.8764 13.0214 26.5376 12.1777C26.1987 11.3341 25.6263 9.91146 25.2657 9.01637C24.905 8.12128 24.3845 6.82495 24.1089 6.13563C23.8333 5.4463 23.4325 4.44459 23.2182 3.90959C23.0039 3.37459 22.6028 2.37288 22.3269 1.68356C22.0509 0.994233 21.7814 0.333456 21.728 0.21512C21.6745 0.0967852 21.6183 0 21.6031 0C21.5879 0 21.49 0.138874 21.3855 0.308651C21.281 0.478429 21.0589 0.853001 20.8919 1.14108C20.725 1.42915 20.182 2.37194 19.6853 3.23617C19.1886 4.10039 18.6163 5.08527 18.4137 5.42479C18.2109 5.76431 17.9115 6.27779 17.7483 6.56587C17.585 6.85394 17.0263 7.82199 16.5066 8.71708C15.9869 9.61217 15.548 10.3582 15.5312 10.375C15.5145 10.3917 15.3723 10.1897 15.2153 9.92602C15.0583 9.66234 14.6823 9.01731 14.3798 8.4926C14.0773 7.96789 13.5528 7.05878 13.2143 6.47234C12.8758 5.8859 12.4749 5.19564 12.3234 4.93843C12.1718 4.68122 11.7861 4.01621 11.4663 3.46064C11.1464 2.90507 10.6027 1.96228 10.2581 1.36555C9.91343 0.768824 9.58923 0.217478 9.53756 0.140296C9.48592 0.0631516 9.42988 0 9.41299 0C9.39613 0 9.37282 0.0151132 9.36124 0.0335575Z" fill="white"/>
</svg>

<svg width="31" height="21" fill="none" xmlns="http://www.w3.org/2000/svg"><path fill-rule="evenodd" clip-rule="evenodd" d="M9.361.034a79.39 79.39 0 0 0-.548 1.356 1955.463 1955.463 0 0 1-2.377 5.924c-.175.432-.415 1.03-.533 1.328a5017.247 5017.247 0 0 0-1.811 4.508l-1.267 3.152-.68 1.693H0v1.15c0 .634.011 1.265.025 1.404l.024.252h11v-2.806h-.777c-.427 0-.785-.014-.796-.032-.011-.018.21-.687.492-1.487.282-.8.607-1.717.724-2.038.116-.32.226-.607.245-.636.027-.043.046-.035.1.04.038.05.121.177.186.28a6433.883 6433.883 0 0 0 2.804 4.547 116.124 116.124 0 0 0 1.379 2.204l.097.127.089-.109c.048-.06.283-.42.52-.8.238-.381.723-1.164 1.077-1.74a4178.64 4178.64 0 0 1 2.72-4.423.889.889 0 0 1 .141-.197c.013 0 .084.164.16.364.075.2.35.971.61 1.712.26.74.542 1.536.626 1.767l.153.421h-1.59v2.844L31 20.82v-2.806l-2.126-.037-.402-.992c-.222-.545-.609-1.505-.86-2.132a12139.868 12139.868 0 0 0-3.503-8.717 4556.963 4556.963 0 0 0-1.782-4.452c-.276-.69-.546-1.35-.599-1.469-.054-.118-.11-.215-.125-.215s-.113.139-.218.309a51.8 51.8 0 0 0-.493.832c-.167.288-.71 1.23-1.207 2.095-.496.864-1.069 1.85-1.271 2.189-.203.34-.503.853-.666 1.14-.163.289-.722 1.257-1.241 2.152-.52.895-.959 1.641-.976 1.658-.017.017-.159-.185-.316-.449a156.87 156.87 0 0 1-.835-1.433l-1.166-2.02c-.338-.587-.74-1.277-.89-1.535-.152-.257-.538-.922-.858-1.477-.32-.556-.863-1.499-1.208-2.095A56.181 56.181 0 0 0 9.538.14C9.486.063 9.43 0 9.413 0s-.04.015-.052.034Z" fill="#fff"/></svg>
